X: 22957
T: Lass O' Corrie Mill, The
R: strathspey
M: 4/4
K: Fmajor
F>G A>F E<G F>G|A<c c>B A<c c>^c|d>f =c>f B>f A>f|(3agf (3efd (3cdB (3ABG|
F>G A>F E<G F>G|A<c c>B A<c c>^c|d>f =c>f B>f A>f|(3agf (3def A<F F2||
A<c c>B A<f f2|e<g (3gfe f<a a>a|b>g a>f g>e f>g|(3agf (3efd (3cdB (3ABG|
A<c c>B A<f f2|e<g (3gfe f<a a>a|b>g a>f g>e f>g|(3agf (3efg a<f f2||

